Newaita-dark/devices/48/media-flash-cf.svg

<svg height="48pt" viewBox="0 0 48 48" width="48pt" xmlns="http://www.w3.org/2000/svg" xmlns:xlink="http://www.w3.org/1999/xlink"><linearGradient id="a" gradientUnits="userSpaceOnUse" x1="23.814782" x2="23.814782" y1="41.9733075" y2="43.95787331253"><stop offset="0" stop-opacity=".27451"/><stop offset="1" stop-opacity="0"/></linearGradient><linearGradient id="b"><stop offset="0" stop-opacity=".313725"/><stop offset=".222222" stop-opacity=".27451"/><stop offset="1" stop-opacity="0"/></linearGradient><radialGradient id="c" cx="450.90894" cy="189.57936" gradientTransform="matrix(.00000026 -.117199 -.210958 -.00000015 75.715265 95.315406)" gradientUnits="userSpaceOnUse" r="21.166656" xlink:href="#b"/><radialGradient id="d" cx="450.90894" cy="189.57936" gradientTransform="matrix(-.00000026 .117199 .210958 .00000015 -28.085718 -11.368814)" gradientUnits="userSpaceOnUse" r="21.166656" xlink:href="#b"/><radialGradient id="e" cx="450.90894" cy="189.57936" gradientTransform="matrix(-.00000026 -.117199 .210958 -.00000015 -28.085718 95.315406)" gradientUnits="userSpaceOnUse" r="21.166656" xlink:href="#b"/><radialGradient id="f" cx="450.90894" cy="189.57936" gradientTransform="matrix(.00000026 .117199 -.210958 .00000015 75.715263 -11.368815)" gradientUnits="userSpaceOnUse" r="21.166656" xlink:href="#b"/><linearGradient id="g" gradientUnits="userSpaceOnUse" x1="23.814786" x2="23.814786" y1="42.0509015" y2="4.34415668747"><stop offset="0" stop-color="#424242"/><stop offset="1" stop-color="#616161"/></linearGradient><linearGradient id="h" gradientUnits="userSpaceOnUse" x1="23.814786" x2="23.814786" y1="42.0509015" y2="4.34415668747"><stop offset="0" stop-color="#bdbdbd"/><stop offset="1" stop-color="#e0e0e0"/></linearGradient><linearGradient id="i" gradientUnits="userSpaceOnUse" x1="19.84565531253" x2="19.84565531253" y1="42.0509015" y2="4.34415668747"><stop offset="0" stop-color="#f44336"/><stop offset="1" stop-color="#ef5350"/></linearGradient><linearGradient id="j" gradientUnits="userSpaceOnUse" x1="23.814786" x2="23.814786" y1="42.0509015" y2="4.34415668747"><stop offset="0" stop-color="#ffca28"/><stop offset="1" stop-color="#ffd54f"/></linearGradient><path d="m11.410156 42.011719h24.808594v2.023437h-24.808594zm0 0" fill="url(#a)"/><path d="m36.21875 41.972656h3.96875v-1.984375h-3.96875zm0 0" fill="url(#c)"/><path d="m11.410156 41.972656h-3.96875v1.984375h3.96875zm0 0" fill="url(#d)"/><path d="m11.410156 41.972656h-3.96875v-1.984375h3.96875zm0 0" fill="url(#e)"/><path d="m36.21875 41.972656h3.96875v1.984375h-3.96875zm0 0" fill="url(#f)"/><path d="m9.921875 4.34375h27.785156c1.097657 0 1.984375.890625 1.984375 1.984375v33.738281c0 1.097656-.886718 1.984375-1.984375 1.984375h-27.785156c-1.09375 0-1.984375-.886719-1.984375-1.984375v-33.738281c0-1.09375.890625-1.984375 1.984375-1.984375zm0 0" fill="url(#g)"/><path d="m23.816406 6.339844c-.527344 0-1.027344.207031-1.398437.578125l-.414063.414062h-10.097656c-1.089844 0-1.972656.882813-1.972656 1.972657v27.785156c0 1.089844.882812 1.976562 1.972656 1.976562h10.097656l.414063.410156c.371093.371094.871093.582032 1.398437.582032h11.90625c1.089844 0 1.972656-.886719 1.976563-1.976563v-29.769531c-.003907-1.089844-.886719-1.972656-1.976563-1.972656zm0 0" fill="url(#h)"/><path d="m14.882812 7.320312h6.949219v31.753907h-6.949219zm0 0" fill="url(#i)"/><path d="m11.90625 7.332031c-1.089844 0-1.972656.882813-1.972656 1.972657v27.785156c0 1.089844.882812 1.976562 1.972656 1.976562h2.976562v-31.734375zm0 0" fill="url(#j)"/><g fill="none" stroke="#212121" stroke-linecap="round" stroke-linejoin="round"><path d="m254.017409-147.381457c-5.624463 0-10.957287 2.208122-14.915242 6.166078l-4.416245 4.416245h-107.698049c-11.62389 0-21.039657 9.415767-21.039657 21.039657v296.3467c0 11.62389 9.415767 21.08132 21.039657 21.08132h107.698049l4.416245 4.374583c3.957955 3.957955 9.290779 6.20774 14.915242 6.20774h126.987873c11.62389 0 21.039658-9.45743 21.081321-21.08132v-317.511346c-.041663-11.62389-9.457431-21.039657-21.081321-21.039657zm0 0" stroke-width="3" transform="matrix(.093759 0 0 .093759 0 20.158175)"/><path d="m158.734842-136.924123h74.117922v338.675992h-74.117922zm0 0" stroke-width="3" transform="matrix(.093759 0 0 .093759 0 20.158175)"/><path d="m479.954173 295.56233c-43.932813 0-79.519967 35.587153-79.519967 79.519966v1120.050535c0 43.932813 35.587154 79.677432 79.519967 79.677432h119.988543v-1279.247933zm0 0" stroke-width="11.338583" transform="scale(.0248071)"/></g><path d="m9.921875 4.34375c-1.097656 0-1.984375.886719-1.984375 1.984375v.496094c0-1.097657.886719-1.984375 1.984375-1.984375h27.785156c1.097657 0 1.984375.886718 1.984375 1.984375v-.496094c0-1.097656-.886718-1.984375-1.984375-1.984375zm0 0" fill="#fff" fill-opacity=".313725"/><path d="m7.9375 39.320312v.746094c0 1.097656.886719 1.984375 1.984375 1.984375h27.785156c1.097657 0 1.984375-.886719 1.984375-1.984375v-.746094c0 1.101563-.886718 1.988282-1.984375 1.988282h-27.785156c-1.097656 0-1.984375-.886719-1.984375-1.988282zm0 0" fill-opacity=".235294"/><path d="m105.823228-168.671091h296.3467c11.707215 0 21.164646 9.499093 21.164646 21.164646v359.840637c0 11.707215-9.457431 21.164645-21.164646 21.164645h-296.3467c-11.665553 0-21.164646-9.45743-21.164646-21.164645v-359.840637c0-11.665553 9.499093-21.164646 21.164646-21.164646zm0 0" fill="none" stroke="#212121" stroke-linecap="round" stroke-linejoin="round" stroke-width="3" transform="matrix(.093759 0 0 .093759 0 20.158175)"/></svg>

<?xml version="1.0" encoding="UTF-8"?>
<svg xmlns="http://www.w3.org/2000/svg" xmlns:xlink="http://www.w3.org/1999/xlink" width="48pt" height="48pt" viewBox="0 0 48 48" version="1.1">
<defs>
<linearGradient id="linear0" gradientUnits="userSpaceOnUse" x1="254" y1="233.5" x2="254" y2="254.66667" gradientTransform="matrix(0.093759,0,0,0.093759,-0.00000375036,20.080581)">
<stop offset="0" style="stop-color:rgb(0%,0%,0%);stop-opacity:0.27451;"/>
<stop offset="1" style="stop-color:rgb(0%,0%,0%);stop-opacity:0;"/>
</linearGradient>
<radialGradient id="radial0" gradientUnits="userSpaceOnUse" cx="450.90894" cy="189.57936" fx="450.90894" fy="189.57936" r="21.166656" gradientTransform="matrix(0.000000261256,-0.117199,-0.210958,-0.000000152308,75.715265,95.315406)">
<stop offset="0" style="stop-color:rgb(0%,0%,0%);stop-opacity:0.313725;"/>
<stop offset="0.222222" style="stop-color:rgb(0%,0%,0%);stop-opacity:0.27451;"/>
<stop offset="1" style="stop-color:rgb(0%,0%,0%);stop-opacity:0;"/>
</radialGradient>
<radialGradient id="radial1" gradientUnits="userSpaceOnUse" cx="450.90894" cy="189.57936" fx="450.90894" fy="189.57936" r="21.166656" gradientTransform="matrix(-0.000000261256,0.117199,0.210958,0.000000152308,-28.085718,-11.368814)">
<stop offset="0" style="stop-color:rgb(0%,0%,0%);stop-opacity:0.313725;"/>
<stop offset="0.222222" style="stop-color:rgb(0%,0%,0%);stop-opacity:0.27451;"/>
<stop offset="1" style="stop-color:rgb(0%,0%,0%);stop-opacity:0;"/>
</radialGradient>
<radialGradient id="radial2" gradientUnits="userSpaceOnUse" cx="450.90894" cy="189.57936" fx="450.90894" fy="189.57936" r="21.166656" gradientTransform="matrix(-0.000000261256,-0.117199,0.210958,-0.000000152308,-28.085718,95.315406)">
<stop offset="0" style="stop-color:rgb(0%,0%,0%);stop-opacity:0.313725;"/>
<stop offset="0.222222" style="stop-color:rgb(0%,0%,0%);stop-opacity:0.27451;"/>
<stop offset="1" style="stop-color:rgb(0%,0%,0%);stop-opacity:0;"/>
</radialGradient>
<radialGradient id="radial3" gradientUnits="userSpaceOnUse" cx="450.90894" cy="189.57936" fx="450.90894" fy="189.57936" r="21.166656" gradientTransform="matrix(0.000000261256,0.117199,-0.210958,0.000000152308,75.715263,-11.368815)">
<stop offset="0" style="stop-color:rgb(0%,0%,0%);stop-opacity:0.313725;"/>
<stop offset="0.222222" style="stop-color:rgb(0%,0%,0%);stop-opacity:0.27451;"/>
<stop offset="1" style="stop-color:rgb(0%,0%,0%);stop-opacity:0;"/>
</radialGradient>
<linearGradient id="linear1" gradientUnits="userSpaceOnUse" x1="254" y1="233.5" x2="254" y2="-168.66667" gradientTransform="matrix(0.093759,0,0,0.093759,0,20.158175)">
<stop offset="0" style="stop-color:rgb(25.882353%,25.882353%,25.882353%);stop-opacity:1;"/>
<stop offset="1" style="stop-color:rgb(38.039216%,38.039216%,38.039216%);stop-opacity:1;"/>
</linearGradient>
<linearGradient id="linear2" gradientUnits="userSpaceOnUse" x1="254" y1="233.5" x2="254" y2="-168.66667" gradientTransform="matrix(0.093759,0,0,0.093759,0,20.158175)">
<stop offset="0" style="stop-color:rgb(74.117647%,74.117647%,74.117647%);stop-opacity:1;"/>
<stop offset="1" style="stop-color:rgb(87.843137%,87.843137%,87.843137%);stop-opacity:1;"/>
</linearGradient>
<linearGradient id="linear3" gradientUnits="userSpaceOnUse" x1="211.66667" y1="233.5" x2="211.66667" y2="-168.66667" gradientTransform="matrix(0.093759,0,0,0.093759,0,20.158175)">
<stop offset="0" style="stop-color:rgb(95.686275%,26.27451%,21.176471%);stop-opacity:1;"/>
<stop offset="1" style="stop-color:rgb(93.72549%,32.54902%,31.372549%);stop-opacity:1;"/>
</linearGradient>
<linearGradient id="linear4" gradientUnits="userSpaceOnUse" x1="254" y1="233.5" x2="254" y2="-168.66667" gradientTransform="matrix(0.093759,0,0,0.093759,0,20.158175)">
<stop offset="0" style="stop-color:rgb(100%,79.215686%,15.686275%);stop-opacity:1;"/>
<stop offset="1" style="stop-color:rgb(100%,83.529412%,30.980392%);stop-opacity:1;"/>
</linearGradient>
</defs>
<g id="surface1">
<path style=" stroke:none;fill-rule:nonzero;fill:url(#linear0);" d="M 11.410156 42.011719 L 36.21875 42.011719 L 36.21875 44.035156 L 11.410156 44.035156 Z M 11.410156 42.011719 "/>
<path style=" stroke:none;fill-rule:nonzero;fill:url(#radial0);" d="M 36.21875 41.972656 L 40.1875 41.972656 L 40.1875 39.988281 L 36.21875 39.988281 Z M 36.21875 41.972656 "/>
<path style=" stroke:none;fill-rule:nonzero;fill:url(#radial1);" d="M 11.410156 41.972656 L 7.441406 41.972656 L 7.441406 43.957031 L 11.410156 43.957031 Z M 11.410156 41.972656 "/>
<path style=" stroke:none;fill-rule:nonzero;fill:url(#radial2);" d="M 11.410156 41.972656 L 7.441406 41.972656 L 7.441406 39.988281 L 11.410156 39.988281 Z M 11.410156 41.972656 "/>
<path style=" stroke:none;fill-rule:nonzero;fill:url(#radial3);" d="M 36.21875 41.972656 L 40.1875 41.972656 L 40.1875 43.957031 L 36.21875 43.957031 Z M 36.21875 41.972656 "/>
<path style=" stroke:none;fill-rule:nonzero;fill:url(#linear1);" d="M 9.921875 4.34375 L 37.707031 4.34375 C 38.804688 4.34375 39.691406 5.234375 39.691406 6.328125 L 39.691406 40.066406 C 39.691406 41.164062 38.804688 42.050781 37.707031 42.050781 L 9.921875 42.050781 C 8.828125 42.050781 7.9375 41.164062 7.9375 40.066406 L 7.9375 6.328125 C 7.9375 5.234375 8.828125 4.34375 9.921875 4.34375 Z M 9.921875 4.34375 "/>
<path style=" stroke:none;fill-rule:nonzero;fill:url(#linear2);" d="M 23.816406 6.339844 C 23.289062 6.339844 22.789062 6.546875 22.417969 6.917969 L 22.003906 7.332031 L 11.90625 7.332031 C 10.816406 7.332031 9.933594 8.214844 9.933594 9.304688 L 9.933594 37.089844 C 9.933594 38.179688 10.816406 39.066406 11.90625 39.066406 L 22.003906 39.066406 L 22.417969 39.476562 C 22.789062 39.847656 23.289062 40.058594 23.816406 40.058594 L 35.722656 40.058594 C 36.8125 40.058594 37.695312 39.171875 37.699219 38.082031 L 37.699219 8.3125 C 37.695312 7.222656 36.8125 6.339844 35.722656 6.339844 Z M 23.816406 6.339844 "/>
<path style=" stroke:none;fill-rule:nonzero;fill:url(#linear3);" d="M 14.882812 7.320312 L 21.832031 7.320312 L 21.832031 39.074219 L 14.882812 39.074219 Z M 14.882812 7.320312 "/>
<path style=" stroke:none;fill-rule:nonzero;fill:url(#linear4);" d="M 11.90625 7.332031 C 10.816406 7.332031 9.933594 8.214844 9.933594 9.304688 L 9.933594 37.089844 C 9.933594 38.179688 10.816406 39.066406 11.90625 39.066406 L 14.882812 39.066406 L 14.882812 7.332031 Z M 11.90625 7.332031 "/>
<path style="fill:none;stroke-width:3;stroke-linecap:round;stroke-linejoin:round;stroke:rgb(12.941176%,12.941176%,12.941176%);stroke-opacity:1;stroke-miterlimit:4;" d="M 254.017409 -147.381457 C 248.392946 -147.381457 243.060122 -145.173335 239.102167 -141.215379 L 234.685922 -136.799134 L 126.987873 -136.799134 C 115.363983 -136.799134 105.948216 -127.383367 105.948216 -115.759477 L 105.948216 180.587223 C 105.948216 192.211113 115.363983 201.668543 126.987873 201.668543 L 234.685922 201.668543 L 239.102167 206.043126 C 243.060122 210.001081 248.392946 212.250866 254.017409 212.250866 L 381.005282 212.250866 C 392.629172 212.250866 402.04494 202.793436 402.086603 191.169546 L 402.086603 -126.3418 C 402.04494 -137.96569 392.629172 -147.381457 381.005282 -147.381457 Z M 254.017409 -147.381457 " transform="matrix(0.093759,0,0,0.093759,0,20.158175)"/>
<path style="fill:none;stroke-width:3;stroke-linecap:round;stroke-linejoin:round;stroke:rgb(12.941176%,12.941176%,12.941176%);stroke-opacity:1;stroke-miterlimit:4;" d="M 158.734842 -136.924123 L 232.852764 -136.924123 L 232.852764 201.751869 L 158.734842 201.751869 Z M 158.734842 -136.924123 " transform="matrix(0.093759,0,0,0.093759,0,20.158175)"/>
<path style="fill:none;stroke-width:11.338583;stroke-linecap:round;stroke-linejoin:round;stroke:rgb(12.941176%,12.941176%,12.941176%);stroke-opacity:1;stroke-miterlimit:4;" d="M 479.954173 295.56233 C 436.02136 295.56233 400.434206 331.149483 400.434206 375.082296 L 400.434206 1495.132831 C 400.434206 1539.065644 436.02136 1574.810263 479.954173 1574.810263 L 599.942716 1574.810263 L 599.942716 295.56233 Z M 479.954173 295.56233 " transform="matrix(0.0248071,0,0,0.0248071,0,0)"/>
<path style=" stroke:none;fill-rule:nonzero;fill:rgb(100%,100%,100%);fill-opacity:0.313725;" d="M 9.921875 4.34375 C 8.824219 4.34375 7.9375 5.230469 7.9375 6.328125 L 7.9375 6.824219 C 7.9375 5.726562 8.824219 4.839844 9.921875 4.839844 L 37.707031 4.839844 C 38.804688 4.839844 39.691406 5.726562 39.691406 6.824219 L 39.691406 6.328125 C 39.691406 5.230469 38.804688 4.34375 37.707031 4.34375 Z M 9.921875 4.34375 "/>
<path style=" stroke:none;fill-rule:nonzero;fill:rgb(0%,0%,0%);fill-opacity:0.235294;" d="M 7.9375 39.320312 L 7.9375 40.066406 C 7.9375 41.164062 8.824219 42.050781 9.921875 42.050781 L 37.707031 42.050781 C 38.804688 42.050781 39.691406 41.164062 39.691406 40.066406 L 39.691406 39.320312 C 39.691406 40.421875 38.804688 41.308594 37.707031 41.308594 L 9.921875 41.308594 C 8.824219 41.308594 7.9375 40.421875 7.9375 39.320312 Z M 7.9375 39.320312 "/>
<path style="fill:none;stroke-width:3;stroke-linecap:round;stroke-linejoin:round;stroke:rgb(12.941176%,12.941176%,12.941176%);stroke-opacity:1;stroke-miterlimit:4;" d="M 105.823228 -168.671091 L 402.169928 -168.671091 C 413.877143 -168.671091 423.334574 -159.171998 423.334574 -147.506445 L 423.334574 212.334192 C 423.334574 224.041407 413.877143 233.498837 402.169928 233.498837 L 105.823228 233.498837 C 94.157675 233.498837 84.658582 224.041407 84.658582 212.334192 L 84.658582 -147.506445 C 84.658582 -159.171998 94.157675 -168.671091 105.823228 -168.671091 Z M 105.823228 -168.671091 " transform="matrix(0.093759,0,0,0.093759,0,20.158175)"/>
</g>
</svg>
